X: 1
T: Devaney's Goat
T: Gabhar an Dubh\'enaigh
C: Tommy Whelan
%D:1976
R: reel
B: Breathnach (CRÉ II), 1976; No. 267, p. 138
S: Fiddle Hell Online 2021-11-4 handout
Z: 2022 John Chambers <jc:trillian.mit.edu>
M: 4/4
L: 1/8
K: D
|:\
vDFA(uB AF)AB | vd2(ufe) dBAF | DFA(uF BF)AF | D(uE {G}ED) v~E3(F |
D3)(B A)FAB | defe dBAg | fedB AF (3FF(F | A)FE(G FD)D2 :|
|:\
faa(b af)df | (3ab(a f)(d ed)Bd | (ABd)e fd (3dd(d | e)df(d ed)Bd |
(ABd)e fd (3dd(d | e)df(d ed)Bd | A2(dB) (3FF(F A)FE(G FD)D2 :|
